X:2
P:Mais an Taobh Tuath (The Beauty of the North)
C:Capt. Simon Fraser
R:Strathspey
M:C
K:Eb
E|"Eb"G,<EE>F G>A B<c|"Ab"C<C "F7"F>E "Bb"DB, B,2|\
 "Eb"G,<EE>F G>A B<g|
 "Bb7"fd e/d/c/B/ "Eb"{d}e2-e:|\
g|"Eb"{d}e>g B<g e<gb>g|"Ab"{g}a>g "F7"{g}f>e "Bb"dg|
 "Eb"e<gB>g e/f/g/a/ bg|"Bb7"{g}af e/d/c/B/ "Eb"{d}e2 eg|\
 g<e B<G e<B G<E|
 "Ab"A<G"F7"F>E "Bb"D<B, "Bb7"B,2|\
 "Eb"G,<EE>A G<e B<g|"Bb7"fd e/d/c/B/ "Eb"{d}e2-e|]
